{
  "width": 12,
  "height": 10,
  "tilewidth": 256,
  "tileheight": 256,
  "orientation": "orthogonal",
  "renderorder": "right-down",
  "infinite": false,
  "nextlayerid": 4,
  "nextobjectid": 1,
  "layers": [
    {
      "id": 1,
      "name": "ground",
      "type": "tilelayer",
      "width": 12,
      "height": 10,
      "visible": true,
      "opacity": 1,
      "data": [
        1,  1,  1,  1,  1,  1,  1,  1,  1,  1,  1,  1,
        1,  1,  4,  4,  5,  1,  1,  1,  1,  1,  1,  1,
        1,  1,  4,  4,  1,  1,  1,  8,  8,  1,  1,  1,
        1,  1,  1,  1,  1,  1,  8,  8,  8,  1,  1,  1,
        1,  1,  1,  1,  1,  1,  1,  1,  1,  1,  1,  1,
        1,  1, 13, 13, 13, 13, 13, 13, 13,  1,  1,  1,
        1,  1, 13, 13, 13, 13, 13, 13, 13,  1,  1,  1,
        1,  1,  1,  1,  1,  1,  1,  1,  1,  1, 42, 42,
        1,  1,  1,  1,  1,  1,  1,  1,  1, 42, 42, 42,
        1,  1,  1,  1,  1,  1,  1,  1, 42, 42, 42, 42
      ]
    },
    {
      "id": 2,
      "name": "decorations",
      "type": "tilelayer",
      "width": 12,
      "height": 10,
      "visible": true,
      "opacity": 1,
      "data": [
        0,  0,  0,  0,  0,  0,  0,  0,  0,  0,  0,  0,
        0,  0,  0,  0,  7,  0,  0,  0,  0,  0,  0,  0,
        0,  0,  0,  0,  0,  0,  0,  0,  0,  7,  0,  0,
        0,  0,  0,  0,  0,  0,  0,  0,  0,  0,  0,  0,
        0,  0,  0,  0,  0,  0,  0,  7,  7,  0,  0,  0,
        0,  0,  0,  0,  0,  0,  0,  0,  0,  0,  0,  0,
        0,  0,  0,  0,  0,  0,  0,  0,  0,  0,  0,  0,
        0,  0,  0,  0,  0,  0,  0,  0,  0,  0,  0,  0,
        0,  0,  0,  0,  0,  0,  0,  0,  0,  0,  0,  0,
        0,  0,  0,  0,  0,  0,  0,  0,  0,  0,  0,  0
      ]
    },
    {
      "id": 3,
      "name": "props",
      "type": "tilelayer",
      "width": 12,
      "height": 10,
      "visible": true,
      "opacity": 1,
      "data": [
        0,  0,  0,  0,  0,  0,  0,  0,  0,  0,  0,  0,
        0,  0,  0,  0, 61,  0,  0,  0,  0,  0,  0,  0,
        0, 68,  0,  0,  0,  0,  0,  0,  0, 69,  0,  0,
        0,  0,  0,  0,  0,  0,  0,  0,  0,  0,  0,  0,
        0,  0,  0,  0,  0,  0,  0,  0,  0,  0, 70,  0,
        0,  0,  0,  0,  0,  0,  0,  0,  0,  0,  0,  0,
        0,  0,  0,  0,  0,  0,  0,  0,  0,  0,  0,  0,
        0,  0,  0,  0,  0,  0,  0,  0,  0,  0, 77,  0,
        0,  0,  0,  0,  0,  0,  0,  0,  0,  0,  0,  0,
        0,  0,  0,  0,  0,  0,  0,  0,  0,  0,  0, 83
      ]
    }
  ],
  "tilesets": [
    {
      "firstgid": 1,
      "source": "summer-ground.tsj"
    },
    {
      "firstgid": 57,
      "source": "summer-props.tsj"
    }
  ]
}
